; generated by Slic3r 0.9.2 on 2012-09-01 at 14:43:57

; layer_height = 0.25
; perimeters = 2
; solid_layers = 3
; fill_density = .2
; perimeter_speed = 100
; infill_speed = 100
; travel_speed = 150
; scale = 1
; nozzle_diameter = .35
; filament_diameter = 1.75
; extrusion_multiplier = 1
; single wall width = 0.39mm
; first layer single wall width = 0.40mm

M190 S110 ; wait for bed temperature to be reached
M104 S215 ; set temperature
G28 ; home all axes
M109 S215 ; wait for temperature to be reached
G90 ; use absolute coordinates
G21 ; set units to millimeters
G92 E0
M82 ; use absolute distances for extrusion
G1 Z0.200 F9000.000
G1 X74.357 Y69.540
G1 F6000.000 E1.00000
G1 X74.997 Y68.710 F3000.000 E1.03392
G1 X75.307 Y68.360 E1.04906
G1 X76.137 Y67.560 E1.08637
G1 X76.657 Y67.130 E1.10821
G1 X77.597 Y66.480 E1.14520
G1 X78.487 Y65.990 E1.17809
G1 X79.517 Y65.530 E1.21460
G1 X79.967 Y65.370 E1.23006
G1 X81.037 Y65.080 E1.26594
G1 X82.087 Y64.900 E1.30043
G1 X83.087 Y64.810 E1.33292
G1 X83.497 Y64.800 E1.34620
G1 X101.887 Y64.810 E1.94144
G1 X102.927 Y64.900 E1.97523
G1 X103.917 Y65.070 E2.00775
G1 X105.027 Y65.370 E2.04496
G1 X105.477 Y65.530 E2.06042
G1 X106.507 Y65.990 E2.09694
G1 X107.447 Y66.520 E2.13186
G1 X108.327 Y67.130 E2.16652
G1 X109.197 Y67.880 E2.20370
G1 X109.927 Y68.640 E2.23781
G1 X110.357 Y69.160 E2.25965
G1 X110.967 Y70.040 E2.29431
G1 X111.527 Y71.030 E2.33113
G1 X111.937 Y71.970 E2.36432
G1 X112.277 Y72.990 E2.39912
G1 X112.397 Y73.450 E2.41451
G1 X112.547 Y74.230 E2.44022
G1 X112.677 Y75.580 E2.48412
G1 X112.677 Y124.390 E4.06399
G1 X112.607 Y125.300 E4.09354
G1 X112.547 Y125.760 E4.10855
G1 X112.397 Y126.540 E4.13426
G1 X112.097 Y127.580 E4.16930
G1 X111.727 Y128.530 E4.20230
G1 X111.527 Y128.960 E4.21765
G1 X110.967 Y129.950 E4.25446
G1 X110.357 Y130.830 E4.28912
G1 X109.607 Y131.700 E4.32630
G1 X108.847 Y132.430 E4.36041
G1 X108.327 Y132.860 E4.38225
G1 X107.447 Y133.470 E4.41691
G1 X106.507 Y134.000 E4.45184
G1 X105.477 Y134.460 E4.48835
G1 X105.027 Y134.620 E4.50381
G1 X103.917 Y134.920 E4.54102
G1 X102.927 Y135.090 E4.57354
G1 X102.237 Y135.160 E4.59599
G1 X101.757 Y135.180 E4.61154
G1 X82.757 Y135.160 E5.22653
G1 X81.617 Y135.020 E5.26370
G1 X80.587 Y134.800 E5.29780
G1 X79.967 Y134.620 E5.31869
G1 X79.517 Y134.460 E5.33415
G1 X78.487 Y134.000 E5.37066
G1 X77.597 Y133.510 E5.40355
G1 X76.657 Y132.860 E5.44054
G1 X75.787 Y132.110 E5.47772
G1 X75.307 Y131.630 E5.49969
G1 X74.637 Y130.830 E5.53347
G1 X74.027 Y129.950 E5.56813
G1 X73.517 Y129.070 E5.60105
G1 X73.307 Y128.640 E5.61654
G1 X72.857 Y127.450 E5.65772
G1 X72.597 Y126.540 E5.68835
G1 X72.397 Y125.430 E5.72486
G1 X72.327 Y124.740 E5.74731
G1 X72.327 Y75.250 E7.34919
G1 X72.467 Y74.100 E7.38669
G1 X72.597 Y73.450 E7.40815
G1 X73.007 Y72.100 E7.45381
G1 X73.307 Y71.350 E7.47996
G1 X73.517 Y70.920 E7.49545
G1 X74.027 Y70.040 E7.52837
G1 X74.324 Y69.590 E7.54582
G1 F6000.000 E6.54582
G92 E0
G1 X103.995 Y124.988 F9000.000
G1 F6000.000 E1.00000
G1 X103.506 Y125.646 F3000.000 E1.02655
G1 X103.335 Y125.835 E1.03480
G1 X103.304 Y125.864 E1.03616
G1 X103.304 Y125.864 E1.03616
G1 X103.146 Y126.006 E1.04304
G1 X103.113 Y126.031 E1.04441
G1 X103.113 Y126.031 E1.04441
G1 X102.942 Y126.158 E1.05128
G1 X102.906 Y126.180 E1.05265
G1 X102.906 Y126.180 E1.05265
G1 X102.723 Y126.289 E1.05953
G1 X102.472 Y126.408 E1.06854
G1 X102.472 Y126.476 E1.07075
G1 X102.133 Y126.527 E1.08185
G1 X101.498 Y126.754 E1.10366
G1 X101.498 Y126.595 E1.10879
G1 X101.246 Y126.583 E1.11698
G1 X100.994 Y126.545 E1.12522
G1 X100.654 Y126.460 E1.13656
G1 X100.654 Y126.450 E1.13689
G1 X100.507 Y126.398 E1.14194
G1 X100.277 Y126.289 E1.15019
G1 X100.058 Y126.158 E1.15843
G1 X99.774 Y125.947 E1.16989
G1 X99.741 Y125.980 E1.17139
G1 X99.342 Y125.442 E1.19307
G1 X99.025 Y124.912 E1.21305
G1 X99.046 Y124.875 E1.21446
G1 X98.854 Y124.468 E1.22901
G1 X98.928 Y124.468 E1.23140
G1 X98.905 Y124.000 E1.24657
G1 X98.915 Y123.788 E1.25345
G1 X98.915 Y123.788 E1.25345
G1 X98.917 Y123.746 E1.25482
G1 X98.955 Y123.494 E1.26306
G1 X99.040 Y123.154 E1.27440
G1 X99.050 Y123.154 E1.27472
G1 X99.102 Y123.007 E1.27978
G1 X99.211 Y122.777 E1.28802
G1 X99.342 Y122.558 E1.29627
G1 X99.494 Y122.354 E1.30451
G1 X99.665 Y122.165 E1.31275
G1 X99.854 Y121.994 E1.32100
G1 X100.058 Y121.842 E1.32924
G1 X100.094 Y121.820 E1.33061
G1 X100.094 Y121.820 E1.33061
G1 X100.277 Y121.711 E1.33749
G1 X100.418 Y121.644 E1.34253
G1 X100.418 Y121.634 E1.34287
G1 X100.506 Y121.603 E1.34590
G1 X100.506 Y121.603 E1.34591
G1 X100.747 Y121.516 E1.35418
G1 X100.918 Y121.473 E1.35991
G1 X100.918 Y121.376 E1.36306
G1 X101.501 Y121.405 E1.38195
G1 X101.501 Y121.405 E1.38196
G1 X101.754 Y121.417 E1.39015
G1 X102.006 Y121.455 E1.39839
G1 X102.253 Y121.516 E1.40664
G1 X102.493 Y121.602 E1.41489
G1 X102.723 Y121.711 E1.42313
G1 X102.942 Y121.842 E1.43137
G1 X103.147 Y121.994 E1.43962
G1 X103.335 Y122.165 E1.44786
G1 X103.506 Y122.354 E1.45610
G1 X103.658 Y122.558 E1.46435
G1 X103.658 Y122.558 E1.46436
G1 X103.896 Y122.880 E1.47731
G1 X103.871 Y122.931 E1.47917
G1 X103.984 Y123.247 E1.49002
G1 X104.045 Y123.494 E1.49826
G1 X104.052 Y123.535 E1.49963
G1 X104.052 Y123.535 E1.49963
G1 X104.083 Y123.746 E1.50650
G1 X104.095 Y124.000 E1.51475
G1 X104.083 Y124.254 E1.52299
G1 X104.045 Y124.506 E1.53124
G1 X103.948 Y124.895 E1.54420
G1 X103.968 Y124.934 E1.54562
G1 X103.533 Y124.842 F9000.000
G1 X103.440 Y125.037 F3000.000 E1.55261
G1 X103.329 Y125.222 E1.55960
G1 X103.316 Y125.241 E1.56034
G1 X103.316 Y125.241 E1.56034
G1 X103.201 Y125.396 E1.56659
G1 X103.056 Y125.556 E1.57358
G1 X102.896 Y125.701 E1.58056
G1 X102.722 Y125.829 E1.58755
G1 X102.537 Y125.940 E1.59454
G1 X102.342 Y126.033 E1.60153
G1 X102.077 Y126.127 E1.61063
G1 X102.077 Y126.136 E1.61091
G1 X102.037 Y126.142 E1.61224
G1 X101.893 Y126.193 E1.61718
G1 X101.893 Y126.181 E1.61758
G1 X101.500 Y126.200 E1.63031
G1 X101.284 Y126.190 E1.63730
G1 X101.071 Y126.158 E1.64429
G1 X101.049 Y126.152 E1.64503
G1 X101.049 Y126.152 E1.64503
G1 X100.861 Y126.106 E1.65128
G1 X100.658 Y126.033 E1.65827
G1 X100.463 Y125.940 E1.66526
G1 X100.278 Y125.829 E1.67225
G1 X100.104 Y125.701 E1.67924
G1 X99.944 Y125.556 E1.68623
G1 X99.929 Y125.539 E1.68697
G1 X99.929 Y125.539 E1.68697
G1 X99.799 Y125.396 E1.69322
G1 X99.786 Y125.377 E1.69396
G1 X99.786 Y125.377 E1.69396
G1 X99.671 Y125.222 E1.70020
G1 X99.659 Y125.203 E1.70095
G1 X99.659 Y125.203 E1.70095
G1 X99.560 Y125.037 E1.70719
G1 X99.477 Y124.863 E1.71344
G1 X99.477 Y124.863 E1.71344
G1 X99.467 Y124.842 E1.71418
G1 X99.395 Y124.639 E1.72117
G1 X99.342 Y124.429 E1.72816
G1 X99.310 Y124.216 E1.73515
G1 X99.300 Y124.000 E1.74214
G1 X99.310 Y123.784 E1.74913
G1 X99.342 Y123.571 E1.75612
G1 X99.348 Y123.549 E1.75686
G1 X99.348 Y123.549 E1.75686
G1 X99.395 Y123.361 E1.76311
G1 X99.467 Y123.158 E1.77009
G1 X99.560 Y122.963 E1.77708
G1 X99.671 Y122.778 E1.78407
G1 X99.799 Y122.604 E1.79106
G1 X99.944 Y122.444 E1.79805
G1 X100.104 Y122.299 E1.80504
G1 X100.278 Y122.171 E1.81203
G1 X100.463 Y122.060 E1.81902
G1 X100.658 Y121.967 E1.82601
G1 X100.812 Y121.912 E1.83131
G1 X100.812 Y121.912 E1.83131
G1 X100.861 Y121.895 E1.83299
G1 X101.071 Y121.842 E1.83998
G1 X101.313 Y121.806 E1.84791
G1 X101.313 Y121.791 E1.84841
G1 X101.500 Y121.800 E1.85446
G1 X101.500 Y121.800 E1.85447
G1 X101.716 Y121.810 E1.86146
G1 X101.929 Y121.842 E1.86845
G1 X102.139 Y121.894 E1.87544
G1 X102.342 Y121.967 E1.88243
G1 X102.537 Y122.060 E1.88942
G1 X102.722 Y122.171 E1.89641
G1 X102.896 Y122.299 E1.90340
G1 X103.056 Y122.444 E1.91038
G1 X103.201 Y122.604 E1.91737
G1 X103.329 Y122.778 E1.92436
G1 X103.330 Y122.778 E1.92437
G1 X103.435 Y122.920 E1.93008
G1 X103.427 Y122.935 E1.93063
G1 X103.533 Y123.158 E1.93863
G1 X103.606 Y123.361 E1.94562
G1 X103.658 Y123.571 E1.95260
G1 X103.690 Y123.784 E1.95959
G1 X103.700 Y124.000 E1.96658
G1 X103.690 Y124.216 E1.97357
G1 X103.658 Y124.429 E1.98056
G1 X103.611 Y124.616 E1.98681
G1 X103.611 Y124.616 E1.98681
G1 X103.605 Y124.639 E1.98755
G1 X103.553 Y124.785 E1.99259
G1 F6000.000 E0.99259
G92 E0
G1 X105.569 Y125.686 F9000.000
G1 F6000.000 E1.00000
G1 X105.385 Y126.076 F3000.000 E1.01399
G1 X105.162 Y126.447 E1.02798
G1 X104.905 Y126.794 E1.04197
G1 X104.615 Y127.115 E1.05596
G1 X104.294 Y127.405 E1.06995
G1 X103.947 Y127.662 E1.08395
G1 X103.576 Y127.885 E1.09794
G1 X103.186 Y128.069 E1.11193
G1 X102.779 Y128.215 E1.12592
G1 X102.359 Y128.320 E1.13991
G1 X101.932 Y128.383 E1.15390
G1 X101.485 Y128.405 E1.16837
G1 X96.595 Y128.405 E1.32667
G1 X96.595 Y119.595 E1.61186
G1 X101.932 Y119.617 E1.78461
G1 X102.359 Y119.680 E1.79860
G1 X102.779 Y119.785 E1.81259
G1 X103.186 Y119.931 E1.82658
G1 X103.576 Y120.115 E1.84057
G1 X103.947 Y120.338 E1.85456
G1 X104.294 Y120.595 E1.86855
G1 X104.615 Y120.885 E1.88254
G1 X104.905 Y121.206 E1.89654
G1 X105.162 Y121.553 E1.91053
G1 X105.385 Y121.924 E1.92452
G1 X105.569 Y122.314 E1.93851
G1 X105.715 Y122.721 E1.95250
G1 X105.820 Y123.141 E1.96649
G1 X105.883 Y123.568 E1.98048
G1 X105.905 Y124.000 E1.99447
G1 X105.883 Y124.432 E2.00846
G1 X105.820 Y124.859 E2.02246
G1 X105.715 Y125.279 E2.03645
G1 X105.590 Y125.629 E2.04850
G1 X105.934 Y125.837 F9000.000
G1 X105.733 Y126.263 F3000.000 E2.06374
G1 X105.491 Y126.667 E2.07899
G1 X105.210 Y127.045 E2.09423
G1 X104.894 Y127.394 E2.10948
G1 X104.545 Y127.710 E2.12473
G1 X104.167 Y127.991 E2.13997
G1 X103.763 Y128.233 E2.15522
G1 X103.337 Y128.434 E2.17046
G1 X102.893 Y128.593 E2.18571
G1 X102.436 Y128.708 E2.20096
G1 X101.970 Y128.777 E2.21620
G1 X101.495 Y128.800 E2.23161
G1 X96.200 Y128.800 E2.40300
G1 X96.200 Y119.200 E2.71373
G1 X101.970 Y119.223 E2.90051
G1 X102.436 Y119.292 E2.91576
G1 X102.893 Y119.407 E2.93100
G1 X103.337 Y119.566 E2.94625
G1 X103.763 Y119.767 E2.96149
G1 X104.167 Y120.009 E2.97674
G1 X104.545 Y120.290 E2.99199
G1 X104.894 Y120.606 E3.00723
G1 X105.210 Y120.955 E3.02248
G1 X105.491 Y121.333 E3.03773
G1 X105.733 Y121.737 E3.05297
G1 X105.934 Y122.163 E3.06822
G1 X106.093 Y122.607 E3.08346
G1 X106.208 Y123.064 E3.09871
G1 X106.277 Y123.530 E3.11396
G1 X106.300 Y124.000 E3.12920
G1 X106.277 Y124.470 E3.14445
G1 X106.208 Y124.936 E3.15970
G1 X106.093 Y125.393 E3.17494
G1 X105.955 Y125.780 E3.18825
G1 F6000.000 E2.18825
G92 E0
G1 X86.083 Y124.254 F9000.000
G1 F6000.000 E1.00000
G1 X86.045 Y124.506 F3000.000 E1.00824
G1 X85.984 Y124.753 E1.01649
G1 X85.898 Y124.993 E1.02473
G1 X85.789 Y125.223 E1.03298
G1 X85.658 Y125.442 E1.04122
G1 X85.633 Y125.476 E1.04259
G1 X85.633 Y125.476 E1.04259
G1 X85.506 Y125.646 E1.04946
G1 X85.335 Y125.835 E1.05771
G1 X85.146 Y126.006 E1.06596
G1 X84.942 Y126.158 E1.07419
G1 X84.723 Y126.289 E1.08244
G1 X84.493 Y126.398 E1.09068
G1 X84.293 Y126.469 E1.09756
G1 X84.293 Y126.469 E1.09756
G1 X84.253 Y126.484 E1.09893
G1 X83.872 Y126.579 E1.11166
G1 X83.872 Y126.614 E1.11278
G1 X83.246 Y126.583 E1.13307
G1 X82.994 Y126.545 E1.14131
G1 X82.747 Y126.484 E1.14955
G1 X82.507 Y126.398 E1.15780
G1 X82.300 Y126.300 E1.16521
G1 X82.242 Y126.358 E1.16787
G1 X81.849 Y126.002 E1.18502
G1 X81.849 Y126.002 E1.18503
G1 X81.665 Y125.835 E1.19307
G1 X81.494 Y125.646 E1.20132
G1 X81.342 Y125.442 E1.20956
G1 X81.211 Y125.223 E1.21780
G1 X81.092 Y124.972 E1.22681
G1 X81.024 Y124.972 E1.22903
G1 X80.992 Y124.761 E1.23594
G1 X80.820 Y124.398 E1.24895
G1 X80.972 Y123.378 E1.28230
G1 X80.927 Y123.378 E1.28376
G1 X81.211 Y122.777 E1.30530
G1 X81.342 Y122.558 E1.31355
G1 X81.494 Y122.354 E1.32179
G1 X81.522 Y122.322 E1.32316
G1 X81.522 Y122.322 E1.32316
G1 X81.665 Y122.165 E1.33003
G1 X81.903 Y121.949 E1.34042
G1 X81.903 Y121.935 E1.34088
G1 X82.277 Y121.711 E1.35499
G1 X82.418 Y121.644 E1.36004
G1 X82.418 Y121.634 E1.36037
G1 X82.509 Y121.601 E1.36351
G1 X82.509 Y121.601 E1.36351
G1 X82.747 Y121.516 E1.37168
G1 X82.918 Y121.473 E1.37742
G1 X82.918 Y121.376 E1.38056
G1 X83.500 Y121.405 E1.39941
G1 X83.500 Y121.405 E1.39941
G1 X83.754 Y121.417 E1.40766
G1 X84.006 Y121.455 E1.41590
G1 X84.253 Y121.516 E1.42414
G1 X84.496 Y121.603 E1.43249
G1 X84.496 Y121.603 E1.43250
G1 X84.848 Y121.729 E1.44457
G1 X84.848 Y121.786 E1.44640
G1 X84.942 Y121.842 E1.44996
G1 X85.146 Y121.994 E1.45820
G1 X85.178 Y122.022 E1.45957
G1 X85.178 Y122.022 E1.45957
G1 X85.335 Y122.165 E1.46645
G1 X85.478 Y122.322 E1.47332
G1 X85.478 Y122.322 E1.47332
G1 X85.506 Y122.354 E1.47469
G1 X85.658 Y122.558 E1.48293
G1 X85.680 Y122.594 E1.48430
G1 X85.680 Y122.594 E1.48430
G1 X85.789 Y122.777 E1.49118
G1 X85.898 Y123.007 E1.49942
G1 X85.984 Y123.247 E1.50767
G1 X86.027 Y123.418 E1.51340
G1 X86.124 Y123.418 E1.51655
G1 X86.095 Y124.010 E1.53571
G1 X86.095 Y124.010 E1.53571
G1 X86.086 Y124.194 E1.54170
G1 X85.690 Y124.216 F9000.000
G1 X85.658 Y124.429 F3000.000 E1.54869
G1 X85.606 Y124.639 E1.55568
G1 X85.533 Y124.842 E1.56267
G1 X85.440 Y125.037 E1.56965
G1 X85.329 Y125.222 E1.57664
G1 X85.201 Y125.396 E1.58363
G1 X85.056 Y125.556 E1.59062
G1 X84.896 Y125.701 E1.59762
G1 X84.722 Y125.829 E1.60460
G1 X84.537 Y125.940 E1.61159
G1 X84.342 Y126.033 E1.61858
G1 X84.139 Y126.105 E1.62557
G1 X83.929 Y126.158 E1.63255
G1 X83.716 Y126.190 E1.63954
G1 X83.500 Y126.200 E1.64653
G1 X83.477 Y126.199 E1.64727
G1 X83.477 Y126.199 E1.64727
G1 X83.284 Y126.190 E1.65352
G1 X83.071 Y126.158 E1.66051
G1 X82.861 Y126.106 E1.66750
G1 X82.658 Y126.033 E1.67449
G1 X82.463 Y125.940 E1.68148
G1 X82.237 Y125.805 E1.69001
G1 X82.228 Y125.813 E1.69039
G1 X82.104 Y125.701 E1.69583
G1 X82.104 Y125.701 E1.69583
G1 X81.944 Y125.556 E1.70281
G1 X81.799 Y125.396 E1.70979
G1 X81.671 Y125.222 E1.71678
G1 X81.560 Y125.037 E1.72377
G1 X81.477 Y124.863 E1.73002
G1 X81.477 Y124.863 E1.73002
G1 X81.467 Y124.842 E1.73076
G1 X81.373 Y124.577 E1.73986
G1 X81.364 Y124.577 E1.74014
G1 X81.310 Y124.216 E1.75197
G1 X81.300 Y124.000 E1.75896
G1 X81.310 Y123.784 E1.76595
G1 X81.314 Y123.762 E1.76669
G1 X81.314 Y123.762 E1.76669
G1 X81.342 Y123.571 E1.77294
G1 X81.394 Y123.361 E1.77993
G1 X81.467 Y123.158 E1.78691
G1 X81.550 Y122.984 E1.79316
G1 X81.550 Y122.984 E1.79316
G1 X81.560 Y122.963 E1.79390
G1 X81.671 Y122.778 E1.80089
G1 X81.799 Y122.604 E1.80788
G1 X81.944 Y122.444 E1.81487
G1 X82.104 Y122.299 E1.82186
G1 X82.278 Y122.171 E1.82885
G1 X82.297 Y122.159 E1.82959
G1 X82.297 Y122.159 E1.82959
G1 X82.463 Y122.060 E1.83584
G1 X82.658 Y121.967 E1.84283
G1 X82.812 Y121.912 E1.84813
G1 X82.812 Y121.912 E1.84813
G1 X82.861 Y121.894 E1.84982
G1 X83.071 Y121.842 E1.85680
G1 X83.313 Y121.806 E1.86473
G1 X83.313 Y121.791 E1.86524
G1 X83.500 Y121.800 E1.87129
G1 X83.500 Y121.800 E1.87129
G1 X83.716 Y121.810 E1.87828
G1 X83.929 Y121.842 E1.88527
G1 X84.139 Y121.895 E1.89226
G1 X84.341 Y121.967 E1.89922
G1 X84.341 Y121.967 E1.89922
G1 X84.453 Y122.007 E1.90307
G1 X84.453 Y122.009 E1.90314
G1 X84.722 Y122.171 E1.91330
G1 X84.896 Y122.299 E1.92029
G1 X85.056 Y122.444 E1.92728
G1 X85.201 Y122.604 E1.93427
G1 X85.329 Y122.778 E1.94126
G1 X85.440 Y122.963 E1.94825
G1 X85.533 Y123.158 E1.95523
G1 X85.606 Y123.361 E1.96222
G1 X85.658 Y123.571 E1.96921
G1 X85.694 Y123.813 E1.97714
G1 X85.709 Y123.813 E1.97764
G1 X85.693 Y124.156 E1.98875
G1 F6000.000 E0.98875
G92 E0
G1 X83.515 Y128.405 F9000.000
G1 F6000.000 E1.00000
G1 X83.068 Y128.383 F3000.000 E1.01446
G1 X82.641 Y128.320 E1.02846
G1 X82.221 Y128.215 E1.04245
G1 X81.814 Y128.069 E1.05644
G1 X81.424 Y127.885 E1.07043
G1 X81.053 Y127.662 E1.08442
G1 X80.706 Y127.405 E1.09841
G1 X80.385 Y127.115 E1.11240
G1 X80.095 Y126.794 E1.12639
G1 X79.838 Y126.447 E1.14038
G1 X79.615 Y126.076 E1.15438
G1 X79.431 Y125.686 E1.16837
G1 X79.285 Y125.279 E1.18236
G1 X79.180 Y124.859 E1.19635
G1 X79.117 Y124.432 E1.21034
G1 X79.095 Y124.000 E1.22433
G1 X79.117 Y123.568 E1.23832
G1 X79.180 Y123.141 E1.25231
G1 X79.285 Y122.721 E1.26630
G1 X79.431 Y122.314 E1.28029
G1 X79.615 Y121.924 E1.29429
G1 X79.838 Y121.553 E1.30828
G1 X80.095 Y121.206 E1.32227
G1 X80.385 Y120.885 E1.33626
G1 X80.706 Y120.595 E1.35025
G1 X81.053 Y120.338 E1.36424
G1 X81.424 Y120.115 E1.37823
G1 X81.814 Y119.931 E1.39222
G1 X82.221 Y119.785 E1.40621
G1 X82.641 Y119.680 E1.42021
G1 X83.068 Y119.617 E1.43420
